material/.icons/material/book-cross.svg

<svg xmlns="http://www.w3.org/2000/svg" viewBox="0 0 24 24"><path d="M5.81 2H7v7l2.5-1.5L12 9V2h6a2 2 0 012 2v16c0 1.05-.95 2-2 2H6c-1.05 0-2-.95-2-2V4c0-1 .83-1.91 1.81-2M13 10v3h-3v2h3v5h2v-5h3v-2h-3v-3h-2z"/></svg>

<?xml version="1.0" encoding="UTF-8"?><!DOCTYPE svg PUBLIC "-//W3C//DTD SVG 1.1//EN" "http://www.w3.org/Graphics/SVG/1.1/DTD/svg11.dtd"><svg xmlns="http://www.w3.org/2000/svg" xmlns:xlink="http://www.w3.org/1999/xlink" version="1.1" id="mdi-book-cross" width="24" height="24" viewBox="0 0 24 24"><path d="M5.81,2H7V9L9.5,7.5L12,9V2H18A2,2 0 0,1 20,4V20C20,21.05 19.05,22 18,22H6C4.95,22 4,21.05 4,20V4C4,3 4.83,2.09 5.81,2M13,10V13H10V15H13V20H15V15H18V13H15V10H13Z" /></svg>
